public/images/reward.svg

<svg height="108" viewBox="0 0 108 108" width="108" xmlns="http://www.w3.org/2000/svg"><path d="m0 0h108v108h-108z" fill="none"/><path d="m74.637 11.955h-8.955v-8.955h-44.773v8.955h-8.954a8.981 8.981 0 0 0 -8.955 8.954v4.477a22.348 22.348 0 0 0 19.655 22.114 22.428 22.428 0 0 0 16.164 13.257v13.88h-17.91v8.955h44.773v-8.955h-17.909v-13.88a22.428 22.428 0 0 0 16.163-13.257 22.348 22.348 0 0 0 19.656-22.113v-4.478a8.981 8.981 0 0 0 -8.955-8.954zm-62.682 13.432v-4.478h8.955v17.1a13.478 13.478 0 0 1 -8.955-12.622zm62.682 0a13.478 13.478 0 0 1 -8.955 12.626v-17.1h8.955z" fill="#fff" transform="translate(10.747 10.432)"/></svg>

<svg xmlns="http://www.w3.org/2000/svg" width="108" height="108" viewBox="0 0 108 108">
  <g id="emoji_events-24px" transform="translate(0.315)">
    <rect id="Rectangle_3302" data-name="Rectangle 3302" width="108" height="108" transform="translate(-0.315)" fill="none"/>
    <path id="Path_6296" data-name="Path 6296" d="M74.637,11.955H65.682V3H20.909v8.955H11.955A8.981,8.981,0,0,0,3,20.909v4.477A22.348,22.348,0,0,0,22.655,47.5,22.428,22.428,0,0,0,38.819,60.757v13.88H20.909v8.955H65.682V74.637H47.773V60.757A22.428,22.428,0,0,0,63.936,47.5,22.348,22.348,0,0,0,83.592,25.387V20.909A8.981,8.981,0,0,0,74.637,11.955ZM11.955,25.387V20.909h8.955v17.1A13.478,13.478,0,0,1,11.955,25.387Zm62.682,0a13.478,13.478,0,0,1-8.955,12.626v-17.1h8.955Z" transform="translate(10.432 10.432)" fill="#fff"/>
  </g>
</svg>
